packages/kaspersky-hexa-ui-icons/src/iconsSVGs/24/Cybertrace.svg

<svg width="24" height="24" viewBox="0 0 24 24" fill="none" xmlns="http://www.w3.org/2000/svg">
<path d="M3.70711 2.29289C3.31658 1.90237 2.68342 1.90237 2.29289 2.29289C1.90237 2.68342 1.90237 3.31658 2.29289 3.70711L7.58579 9H5C4.44772 9 4 9.44772 4 10C4 10.5523 4.44772 11 5 11H9.99931L10.003 11C10.2579 10.9992 10.5126 10.9016 10.7071 10.7071C10.803 10.6112 10.8753 10.5007 10.9241 10.3828C10.9727 10.2657 10.9996 10.1375 11 10.003L11 10V5C11 4.44772 10.5523 4 10 4C9.44772 4 9 4.44772 9 5V7.58579L3.70711 2.29289Z" fill="black"/>
<path d="M3.70711 21.7071C3.31658 22.0976 2.68342 22.0976 2.29289 21.7071C1.90237 21.3166 1.90237 20.6834 2.29289 20.2929L7.58579 15H5C4.44772 15 4 14.5523 4 14C4 13.4477 4.44772 13 5 13H9.99931L10.003 13C10.1375 13.0004 10.2657 13.0273 10.3828 13.0759C10.5007 13.1247 10.6112 13.197 10.7071 13.2929C10.9016 13.4874 10.9992 13.7421 11 13.997L11 14V19C11 19.5523 10.5523 20 10 20C9.44772 20 9 19.5523 9 19V16.4142L3.70711 21.7071Z" fill="black"/>
<path d="M21.7071 2.29289C21.3166 1.90237 20.6834 1.90237 20.2929 2.29289L15 7.58579V5C15 4.44772 14.5523 4 14 4C13.4477 4 13 4.44772 13 5V9.99931L13 10.003C13.0008 10.2579 13.0984 10.5126 13.2929 10.7071C13.3888 10.803 13.4993 10.8753 13.6172 10.9241C13.7343 10.9727 13.8625 10.9996 13.997 11L14 11H19C19.5523 11 20 10.5523 20 10C20 9.44772 19.5523 9 19 9H16.4142L21.7071 3.70711C22.0976 3.31658 22.0976 2.68342 21.7071 2.29289Z" fill="black"/>
<path d="M20.2929 21.7071C20.6834 22.0976 21.3166 22.0976 21.7071 21.7071C22.0976 21.3166 22.0976 20.6834 21.7071 20.2929L16.4142 15H19C19.5523 15 20 14.5523 20 14C20 13.4477 19.5523 13 19 13H14.0007C13.9997 13 13.998 13 13.997 13C13.8625 13.0004 13.7343 13.0273 13.6172 13.0759C13.4993 13.1247 13.3888 13.197 13.2929 13.2929C13.0984 13.4874 13.0008 13.7421 13 13.997C13 13.998 13 13.999 13 14V19C13 19.5523 13.4477 20 14 20C14.5523 20 15 19.5523 15 19V16.4142L20.2929 21.7071Z" fill="black"/>
</svg>

<svg xmlns="http://www.w3.org/2000/svg" width="24" height="24" fill="none" viewBox="0 0 24 24"><path fill="#000" fill-rule="evenodd" d="M3.7071 2.2929c-.3905-.3905-1.0237-.3905-1.4142 0s-.3905 1.0237 0 1.4142L7.5858 9H5c-.5523 0-1 .4477-1 1s.4477 1 1 1h5.003a.997.997 0 0 0 .7041-.2929A.997.997 0 0 0 11 10.003V5c0-.5523-.4477-1-1-1s-1 .4477-1 1v2.5858zm18 0c-.3905-.3905-1.0237-.3905-1.4142 0L15 7.5858V5c0-.5523-.4477-1-1-1s-1 .4477-1 1v5.003a.997.997 0 0 0 .2929.7041.997.997 0 0 0 .7041.2929H19c.5523 0 1-.4477 1-1s-.4477-1-1-1h-2.5858l5.2929-5.2929c.3905-.3905.3905-1.0237 0-1.4142m-18 19.4142c-.3905.3905-1.0237.3905-1.4142 0s-.3905-1.0237 0-1.4142L7.5858 15H5c-.5523 0-1-.4477-1-1s.4477-1 1-1h5.003a.996.996 0 0 1 .7041.2929.997.997 0 0 1 .2929.7041V19c0 .5523-.4477 1-1 1s-1-.4477-1-1v-2.5858zm16.5858 0c.3905.3905 1.0237.3905 1.4142 0s.3905-1.0237 0-1.4142L16.4142 15H19c.5523 0 1-.4477 1-1s-.4477-1-1-1h-5.003a.996.996 0 0 0-.7041.2929.997.997 0 0 0-.2929.7041V19c0 .5523.4477 1 1 1s1-.4477 1-1v-2.5858z"/></svg>
